actions/24/remove-link.svg

<?xml version="1.0" encoding="UTF-8" standalone="no"?>
<svg
   width="24"
   height="24"
   viewBox="0 0 24 24"
   version="1.1"
   id="svg7"
   sodipodi:docname="remove-link.svg"
   inkscape:version="1.1.2 (0a00cf5339, 2022-02-04)"
   xmlns:inkscape="http://www.inkscape.org/namespaces/inkscape"
   xmlns:sodipodi="http://sodipodi.sourceforge.net/DTD/sodipodi-0.dtd"
   xmlns="http://www.w3.org/2000/svg"
   xmlns:svg="http://www.w3.org/2000/svg">
  <sodipodi:namedview
     id="namedview9"
     pagecolor="#000000"
     bordercolor="#666666"
     borderopacity="1.0"
     inkscape:pageshadow="2"
     inkscape:pageopacity="0"
     inkscape:pagecheckerboard="0"
     showgrid="false"
     inkscape:zoom="56.833333"
     inkscape:cx="11.991202"
     inkscape:cy="16.205279"
     inkscape:window-width="1482"
     inkscape:window-height="967"
     inkscape:window-x="0"
     inkscape:window-y="29"
     inkscape:window-maximized="1"
     inkscape:current-layer="svg7" />
  <defs
     id="defs3">
    <style
       id="current-color-scheme"
       type="text/css">
   .ColorScheme-Text { color:#eeeeec; } .ColorScheme-Highlight { color:#367bf0; } .ColorScheme-NeutralText { color:#ffcc44; } .ColorScheme-PositiveText { color:#3db47e; } .ColorScheme-NegativeText { color:#dd4747; }
  </style>
  </defs>
  <path
     style="fill:currentColor"
     class="ColorScheme-Text"
     d="M 5,0 C 2.23,0 0,2.23 0,5 0,7.77 2.23,10 5,10 H 7 V 8 H 5 C 3.338,8 2,6.662 2,5 2,3.338 3.338,2 5,2 H 7 V 0 Z m 4,0 v 2 h 2 c 1.662,0 3,1.338 3,3 0,1.662 -1.338,3 -3,3 H 9 v 2 h 2 C 13.77,10 16,7.77 16,5 16,2.23 13.77,0 11,0 Z M 5,4 v 2 h 6 V 4 Z M 12.414062,11.050781 11,12.464844 l 0.889943,0.889943 0.0054,0.335846 v 0 L 11,14.585938 12.414062,16 l 0.886531,-0.886531 0.340014,-0.008 v 0 L 14.535156,16 l 1.414063,-1.414062 -0.885746,-0.885746 0.01419,-0.363788 v 0 l 0.87156,-0.87156 -1.414063,-1.414063 -0.889045,0.889045 v 0 l -0.368387,-0.02538 z"
     transform="translate(4,4)"
     id="path5"
     sodipodi:nodetypes="sssccsssccsccsssccsssccccccccccccccccccccccccccc" />
</svg>

<svg xmlns="http://www.w3.org/2000/svg" width="24" height="24" viewBox="0 0 24 24">
 <defs>
  <style id="current-color-scheme" type="text/css">
   .ColorScheme-Text { color:#eeeeec; } .ColorScheme-Highlight { color:#367bf0; } .ColorScheme-NeutralText { color:#ffcc44; } .ColorScheme-PositiveText { color:#3db47e; } .ColorScheme-NegativeText { color:#dd4747; }
  </style>
 </defs>
 <path style="fill:currentColor" class="ColorScheme-Text" d="M 5 0 C 2.23 0 0 2.23 0 5 C 0 7.77 2.23 10 5 10 L 7 10 L 7 8 L 5 8 C 3.338 8 2 6.662 2 5 C 2 3.338 3.338 2 5 2 L 7 2 L 7 0 L 5 0 z M 9 0 L 9 2 L 11 2 C 12.662 2 14 3.338 14 5 C 14 6.662 12.662 8 11 8 L 9 8 L 9 10 L 11 10 C 13.77 10 16 7.77 16 5 C 16 2.23 13.77 0 11 0 L 9 0 z M 5 4 L 5 6 L 11 6 L 11 4 L 5 4 z M 12.414062 11.050781 L 11 12.464844 L 12.060547 13.525391 L 11 14.585938 L 12.414062 16 L 13.474609 14.939453 L 14.535156 16 L 15.949219 14.585938 L 14.888672 13.525391 L 15.949219 12.464844 L 14.535156 11.050781 L 13.474609 12.111328 L 12.414062 11.050781 z" transform="translate(4 4)"/>
</svg>
